src/img/logo.svg

<svg width="45" height="40" viewBox="0 0 45 40" fill="none" xmlns="http://www.w3.org/2000/svg">
<path d="M34.8633 9.11328L44.625 5.0293L36.7559 0.646484L29.4844 4.53125L34.8633 9.11328ZM19.125 5.62695L21.6152 9.11328L27.0938 6.22461L23.6074 2.73828L19.125 5.62695ZM12.5508 6.22461L13.8457 9.11328L17.5312 6.82227L15.7383 4.0332L12.5508 6.22461ZM10.2598 14.9902L13.6465 13.2969L12.3516 9.71094L9.36328 11.6035L10.2598 14.9902ZM8.16797 6.72266L8.76562 9.11328L11.4551 7.32031L10.5586 4.92969L8.16797 6.72266ZM5.87695 13.9941L8.26758 12.5L7.66992 9.61133L5.47852 11.2051L5.87695 13.9941ZM2.78906 15.6875L2.88867 18.875L5.17969 17.6797L4.88086 14.3926L2.78906 15.6875ZM0.0996094 20.0703L0 23.7559L2.0918 22.8594L1.99219 19.0742L0.0996094 20.0703ZM5.97656 26.0469L5.47852 21.166L2.98828 22.1621L3.1875 26.8438L5.97656 26.0469ZM9.86133 19.6719L8.96484 15.3887L6.17578 16.8828L6.67383 20.9668L9.86133 19.6719ZM12.252 30.9277L10.7578 24.1543L7.27148 25.25L8.06836 31.5254L12.252 30.9277ZM15.041 17.082L11.2559 18.6758L12.5508 24.0547L17.1328 22.7598L15.041 17.082ZM23.6074 39.9922L19.623 29.2344L14.1445 30.1309L16.5352 39.6934L23.6074 39.9922ZM15.1406 12.1016L17.0332 16.584L22.1133 14.4922L19.3242 9.91016L15.1406 12.1016ZM19.2246 21.5645L22.6113 29.4336L30.5801 28.3379L25.3008 19.7715L19.2246 21.5645ZM24.3047 13.0977L28.7871 19.2734L37.5527 16.6836L31.0781 10.209L24.3047 13.0977Z" fill="#2AA7FF"/>
</svg>

<svg width="45" height="40" fill="none" xmlns="http://www.w3.org/2000/svg"><path d="M34.86 9.11l9.77-4.08L36.76.65l-7.28 3.88 5.38 4.58zM19.13 5.63l2.49 3.48 5.47-2.89-3.48-3.48-4.48 2.89zm-6.58.6l1.3 2.88 3.68-2.29-1.8-2.79-3.18 2.2zm-2.29 8.76l3.39-1.7-1.3-3.58-2.99 1.9.9 3.38zm-2.1-8.27l.6 2.4 2.7-1.8-.9-2.39-2.4 1.8zM5.89 14l2.39-1.49-.6-2.89-2.2 1.6.4 2.78zm-3.1 1.7l.1 3.19 2.3-1.2-.3-3.29-2.1 1.3zM.1 20.07L0 23.76l2.1-.9-.1-3.79-1.9 1zm5.88 5.98l-.5-4.88-2.5 1 .2 4.67 2.8-.8zm3.88-6.38l-.9-4.28-2.78 1.5.5 4.08 3.18-1.3zm2.4 11.26l-1.5-6.78-3.49 1.1.8 6.28 4.18-.6zm2.78-13.85l-3.78 1.6 1.3 5.37 4.57-1.29-2.09-5.68zM23.61 40l-3.99-10.76-5.48.9 2.4 9.56 7.07.3zm-8.47-27.9l1.9 4.48 5.07-2.09-2.79-4.58-4.18 2.2zm4.08 9.46l3.4 7.87 7.96-1.1-5.28-8.56-6.08 1.8zm5.08-8.46l4.49 6.17 8.76-2.59-6.47-6.47-6.78 2.89z" fill="#2AA7FF"/></svg>
